src/lib/Icons/typescript.svg

<svg fill="none" height="41" viewBox="0 0 41 41" width="41" xmlns="http://www.w3.org/2000/svg"><path d="m0 20.0012v20h40.0012v-40.0012h-40.0012zm32.2356-1.5937c1.0156.2538 1.7907.705 2.5019 1.4413.3688.3937.9144 1.1112.9587 1.2824.0125.05-1.7268 1.2188-2.7812 1.8732-.0375.025-.1906-.1394-.3625-.3938-.5144-.75-1.0538-1.0731-1.8794-1.13-1.2125-.0825-2 .5525-1.9875 1.6125 0 .3113.0438.495.1713.75.2669.5525.7625.8825 2.3175 1.5563 2.8637 1.2312 4.0887 2.0437 4.85 3.2.85 1.2887 1.0412 3.3462.4637 4.8762-.635 1.6638-2.2094 2.7938-4.425 3.1688-.6856.1206-2.3112.1018-3.0475-.0313-1.6062-.2856-3.13-1.0794-4.07-2.1206-.3687-.4063-1.0856-1.4669-1.0412-1.5438.0187-.025.1844-.1268.3687-.235l1.4857-.8562 1.15-.6669.2412.3563c.3362.5143 1.0731 1.2187 1.5175 1.4537 1.2763.6731 3.0288.5775 3.8919-.1968.3687-.3363.5206-.6857.5206-1.2001 0-.4637-.0562-.6668-.2981-1.0156-.3113-.4437-.9463-.8187-2.75-1.6-2.0638-.8887-2.9525-1.4412-3.765-2.3175-.47-.5081-.9144-1.3206-1.0988-2-.1525-.565-.1906-1.9812-.07-2.5525.425-2 1.93-3.3843 4.1019-3.7968.705-.1332 2.3438-.0825 3.035.0887zm-9.3906 1.6687.0125 1.6376h-5.2062v14.7937h-3.6825v-14.7937h-5.2063v-1.6063l.04375-1.65c.01875-.025 3.18755-.0375 7.02875-.0312l6.9906.0187z" fill="#007acc"/></svg>

<svg width="41" height="41" viewBox="0 0 41 41" fill="none" xmlns="http://www.w3.org/2000/svg">
<path d="M0 20.0012V40.0012H40.0012V0H0V20.0012ZM32.2356 18.4075C33.2512 18.6613 34.0263 19.1125 34.7375 19.8488C35.1063 20.2425 35.6519 20.96 35.6962 21.1312C35.7087 21.1812 33.9694 22.35 32.915 23.0044C32.8775 23.0294 32.7244 22.865 32.5525 22.6106C32.0381 21.8606 31.4987 21.5375 30.6731 21.4806C29.4606 21.3981 28.6731 22.0331 28.6856 23.0931C28.6856 23.4044 28.7294 23.5881 28.8569 23.8431C29.1238 24.3956 29.6194 24.7256 31.1744 25.3994C34.0381 26.6306 35.2631 27.4431 36.0244 28.5994C36.8744 29.8881 37.0656 31.9456 36.4881 33.4756C35.8531 35.1394 34.2787 36.2694 32.0631 36.6444C31.3775 36.765 29.7519 36.7462 29.0156 36.6131C27.4094 36.3275 25.8856 35.5337 24.9456 34.4925C24.5769 34.0862 23.86 33.0256 23.9044 32.9487C23.9231 32.9237 24.0888 32.8219 24.2731 32.7137L25.7588 31.8575L26.9088 31.1906L27.15 31.5469C27.4862 32.0612 28.2231 32.7656 28.6675 33.0006C29.9438 33.6737 31.6963 33.5781 32.5594 32.8038C32.9281 32.4675 33.08 32.1181 33.08 31.6037C33.08 31.14 33.0238 30.9369 32.7819 30.5881C32.4706 30.1444 31.8356 29.7694 30.0319 28.9881C27.9681 28.0994 27.0794 27.5469 26.2669 26.6706C25.7969 26.1625 25.3525 25.35 25.1681 24.6706C25.0156 24.1056 24.9775 22.6894 25.0981 22.1181C25.5231 20.1181 27.0281 18.7338 29.2 18.3213C29.905 18.1881 31.5438 18.2388 32.235 18.41L32.2356 18.4075ZM22.845 20.0762L22.8575 21.7138H17.6513V36.5075H13.9688V21.7138H8.7625V20.1075L8.80625 18.4575C8.825 18.4325 11.9938 18.42 15.835 18.4263L22.8256 18.445L22.845 20.0762Z" fill="#007ACC"/>
</svg>
